X:1
T:Horsham, 77.77
T:Horsham, 77.77
T:English Traditional Melody
T:Public Domain Courtesy of the Cyber Hymnal™
C:English Traditional Melody
Z:Public Domain
Z:Courtesy of the Cyber Hymnal™
%%score ( 1 2 ) ( 3 4 )
L:1/8
Q:1/4=115
M:4/4
K:E
V:1 treble 
V:2 treble 
V:3 bass 
V:4 bass 
V:1
 [EG]2 [EG]2 [EA]2 [EB]2 | [EG]4 [DF]4 | E8 | [EG]2 [EG]2 [EB]2 [DB]2 | ([CB]2 [B,G]2) (F2 E2) | %5
 [B,F]8 | [B,G]2 [B,G]2 [B,B]2 [B,B]2 | [EA]4 [Dc]4 | [EB]8 | [EG]2 [EG]2 [B,B]2 [CB]2 | %10
 [EG]4 (F2 G2) | E8 |] %12
V:2
 x8 | x8 | E8 | x8 | x4 ^A,4 | x8 | x8 | x8 | x8 | x8 | x4 E4 | E8 |] %12
V:3
 [E,B,]2 [D,B,]2 [C,E]2 [G,,B,]2 | [A,,C]4 [B,,A,]4 | [E,G,]8 | [C,C]2 [C,C]2 [G,,B,]2 [G,,B,]2 | %4
 [A,,E,]4 [C,F,]4 | [D,F,]8 | E,2 E,2 [G,E]2 [G,D]2 | [A,C]4 [F,A,]4 | [G,B,]8 | %9
 [C,C]2 [C,C]2 [G,,B,]2 [A,,E,]2 | [B,,B,]4 [B,,A,]4 | [E,G,]8 |] %12
V:4
 x8 | x8 | x8 | x8 | x8 | x8 | E,2 E,2 x4 | x8 | x8 | x8 | x8 | x8 |] %12

